cssgg/vinyl.svg

<svg
  width="24"
  height="24"
  viewBox="0 0 24 24"
  fill="none"
  xmlns="http://www.w3.org/2000/svg"
>
  <path
    d="M12 13C12.5523 13 13 12.5523 13 12C13 11.4477 12.5523 11 12 11C11.4477 11 11 11.4477 11 12C11 12.5523 11.4477 13 12 13Z"
    fill="currentColor"
  />
  <path
    fill-rule="evenodd"
    clip-rule="evenodd"
    d="M20 12C20 16.4183 16.4183 20 12 20C7.58172 20 4 16.4183 4 12C4 7.58172 7.58172 4 12 4C16.4183 4 20 7.58172 20 12ZM16 12C16 14.2091 14.2091 16 12 16C9.79086 16 8 14.2091 8 12C8 9.79086 9.79086 8 12 8C14.2091 8 16 9.79086 16 12Z"
    fill="currentColor"
  />
</svg>

<svg viewBox="0 0 24 24" xmlns="http://www.w3.org/2000/svg"><g><path d="M12 13c.55 0 1-.45 1-1 0-.56-.45-1-1-1 -.56 0-1 .44-1 1 0 .55.44 1 1 1Z"/><path fill-rule="evenodd" d="M20 12c0 4.41-3.59 8-8 8 -4.42 0-8-3.59-8-8 0-4.42 3.58-8 8-8 4.41 0 8 3.58 8 8Zm-4 0c0 2.2-1.8 4-4 4 -2.21 0-4-1.8-4-4 0-2.21 1.79-4 4-4 2.2 0 4 1.79 4 4Z"/></g></svg>
